X:1
T:Lady Muir MacKenzie
T:Lady Muir MacKenzie
T:William Gow
C:William Gow
L:1/8
Q:1/8=232
M:4/4
K:C
V:1 treble 
V:1
|: D | CE cG EC CD | _B,D _BF DB, FD | CE cG EF Gf | ec de c/c/c cD | CE cG EC CD | %6
 _B,D _BF DB, FD | CE cG EF Gf | ec dB c/c/c c :: a | ge ce ga ge | fd _Bd fg fd | ge ce ga ge | %13
 fa ge c/c/c ca | ge ce ga ge | fd _Bd fg fd | ce df eg fa | ge fd ecc :| %18

